X: 13238
T: Fisherman's Island, The
R: reel
M: 4/4
K: Dmajor
D2 FA d2 Ad|BAGB AFDF|GEFD EFGA|(3Bcd ed cAAg|
fd ~d2 edBd|ABde fdAF|EFGA (3Bcd ed|1 cAGE FDDC:|2 cAGE D2 z2||
|:fd ~d2 AF ~F2|DFAd fdef|gecA bgec|defe dBAF|
D2FA defd|Bgg2 edcB|Adfa g2ed|1 cAGE D2 z2:|2 cAGE FDCE||

